packages/swarm-icons/src/icons/line/Pulse.svg

<svg xmlns="http://www.w3.org/2000/svg" width="24" height="24" viewBox="0 0 24 24">
  <path fill="#757575" d="M6.49487049,12.1589633 L8.51819852,19.4519347 C8.65644985,19.9502538 9.36773536,19.9364941 9.48661067,19.4332009 L12.5169603,6.60333621 L15.515306,18.4410331 C15.6340142,18.9097019 16.2826187,18.9537726 16.4636324,18.505469 L18.2734175,14.0233049 L21.0850457,14.0233049 C21.3611881,14.0233049 21.5850457,13.7994473 21.5850457,13.5233049 C21.5850457,13.2471625 21.3611881,13.0233049 21.0850457,13.0233049 L17.9360846,13.0233049 C17.7322247,13.0233049 17.5487786,13.1470697 17.4724522,13.3361018 L16.1090988,16.7126207 L12.984694,4.37723287 C12.8562329,3.87005877 12.133655,3.87588529 12.0133893,4.385065 L8.96110761,17.3077856 L6.98180148,10.1734887 C6.84667963,9.68644968 6.15676439,9.68453861 6.01894644,10.1708216 L5.12201285,13.335602 L2,13.335602 C1.72385763,13.335602 1.5,13.5594596 1.5,13.835602 C1.5,14.1117444 1.72385763,14.335602 2,14.335602 L5.5,14.335602 C5.72363519,14.335602 5.92007456,14.1870989 5.98105356,13.9719379 L6.49487049,12.1589633 Z"/>
</svg>

<svg xmlns="http://www.w3.org/2000/svg" width="24" height="24"><path fill="#757575" d="M6.495 12.159l2.023 7.293c.138.498.85.484.969-.019l3.03-12.83 2.998 11.838a.5.5 0 00.949.064l1.81-4.482h2.811a.5.5 0 100-1h-3.149a.5.5 0 00-.464.313l-1.363 3.377-3.124-12.336c-.129-.507-.851-.501-.972.008L8.961 17.308l-1.98-7.135c-.134-.487-.824-.488-.962-.002l-.897 3.165H2a.5.5 0 100 1h3.5a.5.5 0 00.481-.364l.514-1.813z"/></svg>
